; generated by PrusaSlicer 2.4.2+win64 on 2022-07-06 at 21:56:47 UTC


;
;
; 

; external perimeters extrusion width = 0.60mm
; perimeters extrusion width = 0.50mm
; infill extrusion width = 0.50mm
; solid infill extrusion width = 0.50mm
; top infill extrusion width = 0.45mm
; first layer extrusion width = 0.42mm

M73 P0 R25
M73 Q0 S25
M201 X1000 Y1000 Z200 E5000 ; sets maximum accelerations, mm/sec^2
M203 X200 Y200 Z12 E120 ; sets maximum feedrates, mm / sec
M204 P1250 R1250 T1250 ; sets acceleration (P, T) and retract acceleration (R), mm/sec^2
M205 X8.00 Y8.00 Z0.40 E4.50 ; sets the jerk limits, mm/sec
M205 S0 T0 ; sets the minimum extruding and travel feed rate, mm/sec
M107
;TYPE:Custom
M862.3 P "MK3" ; printer model check
M862.1 P0.4 ; nozzle diameter check
M115 U3.11.0 ; tell printer latest fw version
G90 ; use absolute coordinates
M83 ; extruder relative mode
M104 S215 ; set extruder temp
M140 S60 ; set bed temp
M190 S60 ; wait for bed temp
M109 S215 ; wait for extruder temp
G28 W ; home all without mesh bed level
G80 ; mesh bed leveling
G1 Z0.2 F720
G1 Y-3 F1000 ; go outside print area
G92 E0
G1 X60 E9 F1000 ; intro line
G1 X100 E12.5 F1000 ; intro line
G92 E0
M221 S95

; Don't change E values below. Excessive value can damage the printer.

M907 E538 ; set extruder motor current
G21 ; set units to millimeters
G90 ; use absolute coordinates
M83 ; use relative distances for extrusion
M900 K0.05 ; Filament gcode LA 1.5
M900 K30 ; Filament gcode LA 1.0
M107
;LAYER_CHANGE
;Z:0.2
;HEIGHT:0.2
;BEFORE_LAYER_CHANGE
G92 E0.0
;0.2


G1 E-.8 F2100
G1 Z.4 F720
;AFTER_LAYER_CHANGE
;0.2
G1 X113.015 Y45.133 F10800
G1 Z.2 F720
G1 E.8 F2100
M204 S800
;TYPE:Skirt/Brim
;WIDTH:0.42
G1 F1200
G1 X114.06 Y44.257 E.04278
G1 X115 Y44.063 E.03008
G1 X135 Y44.063 E.62709
G1 X136.307 Y44.455 E.04278
G1 X137.183 Y45.501 E.04278
G1 X137.377 Y46.44 E.03008
G1 X137.377 Y156.44 E3.44897
G1 X137.199 Y157.344 E.02888
G1 X136.724 Y158.498 E.03913
G1 X135.845 Y160.078 E.05668
G1 X135.113 Y161.089 E.03913
G1 X134.091 Y162.224 E.04791
G1 X132.718 Y163.4 E.05669
G1 X131.439 Y164.237 E.04791
G1 X130.328 Y164.805 E.03913
G1 X128.632 Y165.432 E.05669
G1 X127.143 Y165.773 E.04791
G1 X125.904 Y165.92 E.03913
G1 X124.096 Y165.92 E.05668
G1 X122.581 Y165.724 E.04791
G1 X121.099 Y165.35 E.04791
G1 X119.929 Y164.917 E.03913
G1 X118.561 Y164.237 E.04791
G1 X117.059 Y163.231 E.05668
G1 X115.909 Y162.224 E.04791
G1 X115.064 Y161.306 E.03912
G1 X114.155 Y160.078 E.04791
G1 X113.276 Y158.498 E.05668
G1 X112.801 Y157.344 E.03913
M73 P1 R25
M73 Q1 S25
G1 X112.623 Y156.44 E.02888
G1 X112.623 Y46.44 E3.44897
G1 X112.997 Y45.191 E.0409
M204 S1000
; printing object Bone Structure - Finger 2.0.stl id:0 copy 0
;WIPE_START
M73 P1 R24
G1 F8640
G1 X114.06 Y44.257 E-.32671
G1 X115 Y44.063 E-.22155
G1 X115.917 Y44.063 E-.21174
;WIPE_END
G1 E-.04 F2100
G1 Z.6 F720
G1 X115.787 Y137.227 F10800
G1 Z.2 F720
G1 E.8 F2100
M204 S800
;TYPE:Perimeter
G1 F1200
G1 X134.213 Y137.227 E.57773
G1 X134.213 Y156.285 E.59753
G1 X133.815 Y157.252 E.03279
G1 X133.253 Y158.261 E.03621
G1 X132.577 Y159.197 E.03621
G1 X131.794 Y160.046 E.03621
G1 X130.918 Y160.798 E.03621
G1 X129.958 Y161.44 E.03621
G1 X128.93 Y161.966 E.03621
G1 X127.847 Y162.366 E.03621
G1 X126.724 Y162.637 E.03621
G1 X125.577 Y162.773 E.03621
G1 X124.423 Y162.773 E.03621
G1 X123.276 Y162.637 E.03621
G1 X122.153 Y162.366 E.03621
G1 X121.07 Y161.966 E.03621
G1 X120.042 Y161.44 E.03621
G1 X119.082 Y160.798 E.03621
G1 X118.206 Y160.046 E.03621
G1 X117.423 Y159.197 E.03621
G1 X116.746 Y158.261 E.03621
G1 X116.185 Y157.252 E.03621
G1 X115.787 Y156.285 E.03279
G1 X115.787 Y137.287 E.59565
M204 S1000
G1 X115.41 Y136.85 F10800
M204 S800
;TYPE:External perimeter
G1 F1200
G1 X134.59 Y136.85 E.60138
G1 X134.59 Y156.359 E.61169
G1 X134.156 Y157.416 E.03583
G1 X133.572 Y158.464 E.0376
G1 X132.869 Y159.436 E.03761
G1 X132.057 Y160.318 E.03761
G1 X131.146 Y161.098 E.03761
G1 X130.15 Y161.766 E.03761
G1 X129.082 Y162.312 E.0376
G1 X127.957 Y162.728 E.0376
G1 X126.791 Y163.008 E.03761
G1 X125.6 Y163.15 E.0376
G1 X124.4 Y163.15 E.0376
G1 X123.209 Y163.008 E.0376
G1 X122.043 Y162.728 E.03761
G1 X120.918 Y162.312 E.0376
G1 X119.85 Y161.766 E.0376
G1 X118.854 Y161.098 E.03761
G1 X117.943 Y160.318 E.03761
G1 X117.131 Y159.436 E.03761
M73 Q1 S24
G1 X116.428 Y158.464 E.03761
G1 X115.844 Y157.416 E.0376
G1 X115.41 Y156.359 E.03583
G1 X115.41 Y136.91 E.60981
M204 S1000
G1 X115.758 Y137.048 F10800
;WIPE_START
M73 Q2 S24
G1 F8640
G1 X118.701 Y136.9 E-.76
;WIPE_END
G1 E-.04 F2100
G1 Z.6 F720
G1 X134.1 Y138.105 F10800
G1 Z.2 F720
M73 P2 R24
G1 E.8 F2100
M204 S800
;TYPE:Solid infill
;WIDTH:0.421067
G1 F1200
G1 X133.505 Y137.51 E.02645
G1 X132.97 Y137.51 E.01682
G1 X133.93 Y138.47 E.04269
G1 X133.93 Y139.005 E.01682
G1 X132.435 Y137.51 E.06647
G1 X131.901 Y137.51 E.01682
G1 X133.93 Y139.54 E.09025
G1 X133.93 Y140.074 E.01682
G1 X131.366 Y137.51 E.11403
G1 X130.831 Y137.51 E.01682
G1 X133.93 Y140.609 E.13781
G1 X133.93 Y141.144 E.01682
G1 X130.296 Y137.51 E.16159
G1 X129.762 Y137.51 E.01682
G1 X133.93 Y141.679 E.18537
G1 X133.93 Y142.214 E.01682
G1 X129.227 Y137.51 E.20915
G1 X128.692 Y137.51 E.01682
G1 X133.93 Y142.748 E.23293
G1 X133.93 Y143.283 E.01682
G1 X128.157 Y137.51 E.25671
G1 X127.622 Y137.51 E.01682
G1 X133.93 Y143.818 E.28049
G1 X133.93 Y144.353 E.01682
G1 X127.088 Y137.51 E.30427
G1 X126.553 Y137.51 E.01682
G1 X133.93 Y144.887 E.32805
G1 X133.93 Y145.422 E.01682
G1 X126.018 Y137.51 E.35183
G1 X125.483 Y137.51 E.01682
G1 X133.93 Y145.957 E.37561
G1 X133.93 Y146.492 E.01682
G1 X124.948 Y137.51 E.39939
G1 X124.414 Y137.51 E.01682
G1 X133.93 Y147.027 E.42317
G1 X133.93 Y147.561 E.01682
G1 X123.879 Y137.51 E.44695
G1 X123.344 Y137.51 E.01682
G1 X133.93 Y148.096 E.47073
G1 X133.93 Y148.631 E.01682
G1 X122.809 Y137.51 E.49451
G1 X122.275 Y137.51 E.01682
G1 X133.93 Y149.166 E.51829
G1 X133.93 Y149.7 E.01682
G1 X121.74 Y137.51 E.54207
G1 X121.205 Y137.51 E.01682
G1 X133.93 Y150.235 E.56585
G1 X133.93 Y150.77 E.01682
G1 X120.67 Y137.51 E.58963
G1 X120.135 Y137.51 E.01682
G1 X133.93 Y151.305 E.61341
G1 X133.93 Y151.84 E.01682
G1 X119.601 Y137.51 E.63719
G1 X119.066 Y137.51 E.01682
M73 P3 R24
M73 Q3 S24
G1 X133.93 Y152.374 E.66097
G1 X133.93 Y152.909 E.01682
G1 X118.531 Y137.51 E.68475
G1 X117.996 Y137.51 E.01682
G1 X133.93 Y153.444 E.70853
G1 X133.93 Y153.979 E.01682
G1 X117.462 Y137.51 E.73231
G1 X116.927 Y137.51 E.01682
G1 X133.93 Y154.514 E.75609
G1 X133.93 Y155.048 E.01682
G1 X116.392 Y137.51 E.77987
G1 X116.07 Y137.51 E.01013
G1 X116.07 Y137.723 E.00669
G1 X133.93 Y155.583 E.7942
G1 X133.93 Y156.118 E.01682
G1 X116.07 Y138.258 E.7942
G1 X116.07 Y138.792 E.01682
G1 X133.807 Y156.529 E.78871
G1 X133.651 Y156.908 E.01288
G1 X116.07 Y139.327 E.78178
G1 X116.07 Y139.862 E.01682
G1 X133.48 Y157.272 E.7742
G1 X133.289 Y157.616 E.01236
G1 X116.07 Y140.397 E.76569
G1 X116.07 Y140.931 E.01682
M73 Q4 S24
G1 X133.098 Y157.959 E.75718
G1 X132.888 Y158.284 E.01216
M73 P4 R24
G1 X116.07 Y141.466 E.74785
G1 X116.07 Y142.001 E.01682
G1 X132.663 Y158.595 E.73786
G1 X132.439 Y158.905 E.01204
G1 X116.07 Y142.536 E.72788
G1 X116.07 Y143.071 E.01682
G1 X132.194 Y159.195 E.717
G1 X131.938 Y159.473 E.0119
G1 X116.07 Y143.605 E.7056
G1 X116.07 Y144.14 E.01682
G1 X131.681 Y159.752 E.6942
G1 X131.404 Y160.009 E.0119
G1 X116.07 Y144.675 E.68185
G1 X116.07 Y145.21 E.01682
G1 X131.116 Y160.256 E.66904
G1 X130.828 Y160.502 E.01193
G1 X116.07 Y145.745 E.65624
G1 X116.07 Y146.279 E.01682
G1 X130.517 Y160.726 E.6424
G1 X130.196 Y160.941 E.01212
G1 X116.07 Y146.814 E.62816
G1 X116.07 Y147.349 E.01682
G1 X129.876 Y161.155 E.61393
G1 X129.529 Y161.342 E.01241
G1 X116.07 Y147.884 E.59847
G1 X116.07 Y148.418 E.01682
M73 P5 R24
M73 Q5 S24
G1 X129.175 Y161.523 E.58274
G1 X128.821 Y161.704 E.0125
G1 X116.07 Y148.953 E.567
G1 X116.07 Y149.488 E.01682
G1 X128.431 Y161.849 E.54966
G1 X128.04 Y161.993 E.01309
G1 X116.07 Y150.023 E.5323
G1 X116.07 Y150.558 E.01682
G1 X127.638 Y162.126 E.51441
G1 X127.207 Y162.23 E.01394
M73 P5 R23
G1 X116.07 Y151.092 E.49524
G1 X116.07 Y151.627 E.01682
G1 X126.776 Y162.333 E.47607
G1 X126.309 Y162.401 E.01484
G1 X116.07 Y152.162 E.45531
G1 X116.07 Y152.697 E.01682
G1 X125.831 Y162.458 E.43405
G1 X125.561 Y162.49 E.00856
G1 X125.328 Y162.49 E.00731
G1 X116.07 Y153.231 E.4117
G1 X116.07 Y153.766 E.01682
G1 X124.793 Y162.49 E.38792
G1 X124.439 Y162.49 E.01114
G1 X124.234 Y162.466 E.00649
G1 X116.07 Y154.301 E.36305
G1 X116.07 Y154.836 E.01682
G1 X123.628 Y162.394 E.33607
G1 X123.326 Y162.358 E.00956
G1 X122.972 Y162.273 E.01145
G1 X116.07 Y155.371 E.30691
G1 X116.07 Y155.905 E.01682
G1 X122.268 Y162.103 E.2756
G1 X121.426 Y161.796 E.02818
G1 X116.217 Y156.588 E.2316
G1 X116.44 Y157.129 E.01841
G1 X116.711 Y157.616 E.01752
G1 X120.402 Y161.307 E.16412
G1 X120.185 Y161.196 E.00765
G1 X119.254 Y160.572 E.03526
G1 X118.405 Y159.844 E.03516
G1 X117.056 Y158.495 E.05998
M204 S1000
;WIPE_START
G1 F8640
G1 X118.405 Y159.844 E-.4405
G1 X119.254 Y160.572 E-.25822
G1 X119.474 Y160.72 E-.06128
;WIPE_END
G1 E-.04 F2100
G1 Z.6 F720
G1 X115.787 Y125.653 F10800
G1 Z.2 F720
M73 Q5 S23
G1 E.8 F2100
M204 S800
;TYPE:Perimeter
;WIDTH:0.42
G1 F1200
G1 X115.787 Y107.227 E.57773
G1 X134.213 Y107.227 E.57773
G1 X134.213 Y125.653 E.57773
G1 X115.847 Y125.653 E.57585
M204 S1000
M73 P6 R23
M73 Q6 S23
G1 X115.41 Y126.03 F10800
M204 S800
;TYPE:External perimeter
G1 F1200
G1 X115.41 Y106.85 E.60138
G1 X134.59 Y106.85 E.60138
G1 X134.59 Y126.03 E.60138
G1 X115.47 Y126.03 E.59949
M204 S1000
G1 X115.514 Y125.644 F10800
;WIPE_START
G1 F8640
G1 X115.46 Y122.739 E-.76
;WIPE_END
G1 E-.04 F2100
G1 Z.6 F720
G1 X134.1 Y108.107 F10800
G1 Z.2 F720
G1 E.8 F2100
M204 S800
;TYPE:Solid infill
;WIDTH:0.422206
G1 F1200
G1 X133.503 Y107.51 E.02664
G1 X132.966 Y107.51 E.01692
G1 X133.93 Y108.474 E.04299
G1 X133.93 Y109.011 E.01692
G1 X132.43 Y107.51 E.06692
G1 X131.893 Y107.51 E.01692
G1 X133.93 Y109.547 E.09084
G1 X133.93 Y110.083 E.01692
G1 X131.357 Y107.51 E.11477
G1 X130.821 Y107.51 E.01692
G1 X133.93 Y110.62 E.13869
G1 X133.93 Y111.156 E.01692
G1 X130.284 Y107.51 E.16261
G1 X129.748 Y107.51 E.01692
G1 X133.93 Y111.692 E.18654
G1 X133.93 Y112.229 E.01692
G1 X129.211 Y107.51 E.21046
G1 X128.675 Y107.51 E.01692
G1 X133.93 Y112.765 E.23438
G1 X133.93 Y113.302 E.01692
G1 X128.139 Y107.51 E.25831
G1 X127.602 Y107.51 E.01692
G1 X133.93 Y113.838 E.28223
G1 X133.93 Y114.374 E.01692
G1 X127.066 Y107.51 E.30615
G1 X126.529 Y107.51 E.01692
G1 X133.93 Y114.911 E.33008
G1 X133.93 Y115.447 E.01692
G1 X125.993 Y107.51 E.354
G1 X125.457 Y107.51 E.01692
G1 X133.93 Y115.984 E.37793
G1 X133.93 Y116.52 E.01692
G1 X124.92 Y107.51 E.40185
G1 X124.384 Y107.51 E.01692
G1 X133.93 Y117.056 E.42577
G1 X133.93 Y117.593 E.01692
G1 X123.848 Y107.51 E.4497
G1 X123.311 Y107.51 E.01692
G1 X133.93 Y118.129 E.47362
G1 X133.93 Y118.666 E.01692
G1 X122.775 Y107.51 E.49754
G1 X122.238 Y107.51 E.01692
M73 P7 R23
M73 Q7 S23
G1 X133.93 Y119.202 E.52147
G1 X133.93 Y119.738 E.01692
G1 X121.702 Y107.51 E.54539
G1 X121.166 Y107.51 E.01692
G1 X133.93 Y120.275 E.56931
G1 X133.93 Y120.811 E.01692
G1 X120.629 Y107.51 E.59324
G1 X120.093 Y107.51 E.01692
G1 X133.93 Y121.348 E.61716
G1 X133.93 Y121.884 E.01692
G1 X119.556 Y107.51 E.64109
G1 X119.02 Y107.51 E.01692
G1 X133.93 Y122.42 E.66501
G1 X133.93 Y122.957 E.01692
G1 X118.484 Y107.51 E.68893
G1 X117.947 Y107.51 E.01692
G1 X133.93 Y123.493 E.71286
G1 X133.93 Y124.029 E.01692
G1 X117.411 Y107.51 E.73678
G1 X116.874 Y107.51 E.01692
G1 X133.93 Y124.566 E.7607
G1 X133.93 Y125.102 E.01692
G1 X116.338 Y107.51 E.78463
G1 X116.07 Y107.51 E.00846
G1 X116.07 Y107.778 E.00846
G1 X133.662 Y125.37 E.78462
G1 X133.126 Y125.37 E.01692
G1 X116.07 Y108.315 E.7607
G1 X116.07 Y108.851 E.01692
M73 P8 R23
M73 Q8 S23
G1 X132.589 Y125.37 E.73678
G1 X132.053 Y125.37 E.01692
G1 X116.07 Y109.388 E.71285
G1 X116.07 Y109.924 E.01692
G1 X131.516 Y125.37 E.68893
G1 X130.98 Y125.37 E.01692
G1 X116.07 Y110.46 E.66501
G1 X116.07 Y110.997 E.01692
G1 X130.444 Y125.37 E.64108
G1 X129.907 Y125.37 E.01692
G1 X116.07 Y111.533 E.61716
G1 X116.07 Y112.07 E.01692
G1 X129.371 Y125.37 E.59324
G1 X128.834 Y125.37 E.01692
G1 X116.07 Y112.606 E.56931
G1 X116.07 Y113.142 E.01692
G1 X128.298 Y125.37 E.54539
G1 X127.762 Y125.37 E.01692
G1 X116.07 Y113.679 E.52146
G1 X116.07 Y114.215 E.01692
G1 X127.225 Y125.37 E.49754
G1 X126.689 Y125.37 E.01692
G1 X116.07 Y114.751 E.47362
G1 X116.07 Y115.288 E.01692
G1 X126.152 Y125.37 E.44969
G1 X125.616 Y125.37 E.01692
G1 X116.07 Y115.824 E.42577
G1 X116.07 Y116.361 E.01692
G1 X125.08 Y125.37 E.40185
G1 X124.543 Y125.37 E.01692
G1 X116.07 Y116.897 E.37792
G1 X116.07 Y117.433 E.01692
M73 P9 R23
M73 Q9 S23
G1 X124.007 Y125.37 E.354
G1 X123.47 Y125.37 E.01692
G1 X116.07 Y117.97 E.33008
G1 X116.07 Y118.506 E.01692
G1 X122.934 Y125.37 E.30615
G1 X122.398 Y125.37 E.01692
G1 X116.07 Y119.043 E.28223
G1 X116.07 Y119.579 E.01692
G1 X121.861 Y125.37 E.2583
G1 X121.325 Y125.37 E.01692
G1 X116.07 Y120.115 E.23438
G1 X116.07 Y120.652 E.01692
G1 X120.789 Y125.37 E.21046
G1 X120.252 Y125.37 E.01692
G1 X116.07 Y121.188 E.18653
G1 X116.07 Y121.725 E.01692
M73 P9 R22
G1 X119.716 Y125.37 E.16261
G1 X119.179 Y125.37 E.01692
G1 X116.07 Y122.261 E.13869
G1 X116.07 Y122.797 E.01692
G1 X118.643 Y125.37 E.11476
G1 X118.107 Y125.37 E.01692
G1 X116.07 Y123.334 E.09084
G1 X116.07 Y123.87 E.01692
G1 X117.57 Y125.37 E.06691
G1 X117.034 Y125.37 E.01692
G1 X116.07 Y124.407 E.04299
G1 X116.07 Y124.943 E.01692
G1 X116.667 Y125.54 E.02664
M204 S1000
;WIPE_START
G1 F8640
G1 X116.07 Y124.943 E-.19501
G1 X116.07 Y124.407 E-.12385
G1 X117.034 Y125.37 E-.31476
G1 X117.57 Y125.37 E-.12385
G1 X117.562 Y125.363 E-.00252
;WIPE_END
G1 E-.04 F2100
G1 Z.6 F720
G1 X115.787 Y95.653 F10800
G1 Z.2 F720
G1 E.8 F2100
M204 S800
;TYPE:Perimeter
;WIDTH:0.42
G1 F1200
G1 X115.787 Y77.227 E.57773
G1 X134.213 Y77.227 E.57773
G1 X134.213 Y95.653 E.57773
G1 X115.847 Y95.653 E.57585
M204 S1000
G1 X115.41 Y96.03 F10800
M204 S800
;TYPE:External perimeter
G1 F1200
G1 X115.41 Y76.85 E.60138
G1 X134.59 Y76.85 E.60138
G1 X134.59 Y96.03 E.60138
G1 X115.47 Y96.03 E.59949
M204 S1000
M73 Q9 S22
G1 X115.514 Y95.644 F10800
;WIPE_START
G1 F8640
G1 X115.46 Y92.739 E-.76
;WIPE_END
G1 E-.04 F2100
G1 Z.6 F720
G1 X133.333 Y77.34 F10800
G1 Z.2 F720
G1 E.8 F2100
M204 S800
;TYPE:Solid infill
;WIDTH:0.422206
G1 F1200
G1 X133.93 Y77.938 E.02664
G1 X133.93 Y78.474 E.01692
G1 X132.966 Y77.51 E.04299
G1 X132.43 Y77.51 E.01692
G1 X133.93 Y79.011 E.06692
G1 X133.93 Y79.547 E.01692
G1 X131.893 Y77.51 E.09084
G1 X131.357 Y77.51 E.01692
G1 X133.93 Y80.083 E.11477
G1 X133.93 Y80.62 E.01692
G1 X130.821 Y77.51 E.13869
G1 X130.284 Y77.51 E.01692
M73 P10 R22
G1 X133.93 Y81.156 E.16261
G1 X133.93 Y81.692 E.01692
M73 Q10 S22
G1 X129.748 Y77.51 E.18654
G1 X129.211 Y77.51 E.01692
G1 X133.93 Y82.229 E.21046
G1 X133.93 Y82.765 E.01692
G1 X128.675 Y77.51 E.23438
G1 X128.139 Y77.51 E.01692
G1 X133.93 Y83.302 E.25831
G1 X133.93 Y83.838 E.01692
G1 X127.602 Y77.51 E.28223
G1 X127.066 Y77.51 E.01692
G1 X133.93 Y84.374 E.30615
G1 X133.93 Y84.911 E.01692
G1 X126.529 Y77.51 E.33008
G1 X125.993 Y77.51 E.01692
G1 X133.93 Y85.447 E.354
G1 X133.93 Y85.984 E.01692
G1 X125.457 Y77.51 E.37793
G1 X124.92 Y77.51 E.01692
G1 X133.93 Y86.52 E.40185
G1 X133.93 Y87.056 E.01692
G1 X124.384 Y77.51 E.42577
G1 X123.848 Y77.51 E.01692
G1 X133.93 Y87.593 E.4497
G1 X133.93 Y88.129 E.01692
G1 X123.311 Y77.51 E.47362
G1 X122.775 Y77.51 E.01692
G1 X133.93 Y88.666 E.49754
G1 X133.93 Y89.202 E.01692
G1 X122.238 Y77.51 E.52147
G1 X121.702 Y77.51 E.01692
G1 X133.93 Y89.738 E.54539
G1 X133.93 Y90.275 E.01692
G1 X121.166 Y77.51 E.56931
G1 X120.629 Y77.51 E.01692
G1 X133.93 Y90.811 E.59324
G1 X133.93 Y91.348 E.01692
G1 X120.093 Y77.51 E.61716
G1 X119.556 Y77.51 E.01692
G1 X133.93 Y91.884 E.64109
G1 X133.93 Y92.42 E.01692
G1 X119.02 Y77.51 E.66501
G1 X118.484 Y77.51 E.01692
M73 P11 R22
G1 X133.93 Y92.957 E.68893
G1 X133.93 Y93.493 E.01692
M73 Q11 S22
G1 X117.947 Y77.51 E.71286
G1 X117.411 Y77.51 E.01692
G1 X133.93 Y94.029 E.73678
